icons/thumbsdown-24.svg

<svg width="24" height="24" viewBox="0 0 24 24" xmlns="http://www.w3.org/2000/svg">
  <path fill-rule="evenodd" clip-rule="evenodd" d="M12.5964 21.957C11.2946 22.0491 10.2931 20.9714 10.2931 19.7508L10.2931 18.6983C10.2931 16.0316 8.48031 14.9132 7.51866 14.4987C7.3646 14.4323 7.19129 14.3901 6.99615 14.3671C6.93593 15.279 6.17717 16 5.25 16H3.75C2.7835 16 2 15.2165 2 14.25V3.75003C2 2.78353 2.7835 2.00003 3.75 2.00003H5.25C6.15903 2.00003 6.90618 2.69313 6.99181 3.57969C7.83027 3.51925 8.65913 3.28427 9.6829 2.99405C9.87595 2.93932 10.0759 2.88263 10.2842 2.82478C11.7485 2.41802 13.4975 2 15.8276 2C18.0161 2 19.5214 2.20406 20.4112 3.37198C20.8332 3.92585 21.0603 4.62733 21.2266 5.42229C21.3746 6.12991 21.4889 6.99252 21.6227 8.00224L21.6745 8.39225C21.9926 10.7778 22.0022 12.5723 21.4506 13.7856C21.1576 14.43 20.7077 14.9114 20.0963 15.2174C19.5051 15.5133 18.8123 15.6207 18.0604 15.6207H16.0095C16.0268 15.7566 16.046 15.8997 16.0662 16.0498C16.0906 16.2309 16.1163 16.4222 16.1415 16.6225C16.2023 17.105 16.2586 17.628 16.2586 18.0603C16.2586 19.3047 16.0371 20.313 15.3387 21.0015C14.6546 21.6759 13.6709 21.881 12.5964 21.957ZM7 5.08189C8.05887 5.01796 9.07873 4.72703 10.1178 4.43063C10.3063 4.37684 10.4955 4.32288 10.6857 4.27005C12.092 3.87939 13.6922 3.5 15.8276 3.5C18.1046 3.5 18.8321 3.77439 19.2181 4.28104C19.434 4.56445 19.6056 4.99929 19.7583 5.72938C19.8941 6.37832 20.0004 7.17989 20.1365 8.20564L20.1876 8.59051C20.5075 10.9894 20.4397 12.3846 20.085 13.1648C19.9248 13.5172 19.7096 13.7335 19.4249 13.8761C19.1199 14.0287 18.6855 14.1207 18.0604 14.1207H15.6896C15.0085 14.1207 14.3969 14.6914 14.4786 15.4492C14.5048 15.6926 14.5441 15.9858 14.584 16.2828C14.6078 16.4605 14.6318 16.6396 14.6533 16.8101C14.714 17.2917 14.7586 17.7316 14.7586 18.0603C14.7586 19.185 14.5458 19.6768 14.2856 19.9333C14.0112 20.2038 13.5124 20.3885 12.4906 20.4607C12.1398 20.4855 11.7931 20.1869 11.7931 19.7507L11.7931 18.6983C11.7931 15.1487 9.30493 13.6352 8.11234 13.1212C7.74059 12.961 7.35937 12.8888 7 12.8605V5.08189ZM3.75 3.50003C3.61193 3.50003 3.5 3.61196 3.5 3.75003V14.25C3.5 14.3881 3.61193 14.5 3.75 14.5H5.25C5.38807 14.5 5.5 14.3881 5.5 14.25V3.75003C5.5 3.61196 5.38807 3.50003 5.25 3.50003H3.75Z"/>
</svg>

<svg xmlns="http://www.w3.org/2000/svg" width="24" height="24" viewBox="0 0 24 24"><path fill-rule="evenodd" d="M12.596 21.957c-1.301.092-2.303-.986-2.303-2.206v-1.053c0-2.666-1.813-3.785-2.774-4.2a1.864 1.864 0 00-.523-.13A1.75 1.75 0 015.25 16h-1.5A1.75 1.75 0 012 14.25V3.75C2 2.784 2.784 2 3.75 2h1.5a1.75 1.75 0 011.742 1.58c.838-.06 1.667-.296 2.69-.586l.602-.17C11.748 2.419 13.497 2 15.828 2c2.188 0 3.693.204 4.583 1.372.422.554.65 1.255.816 2.05.148.708.262 1.57.396 2.58l.051.39c.319 2.386.328 4.18-.223 5.394-.293.644-.743 1.125-1.355 1.431-.59.296-1.284.404-2.036.404h-2.05l.056.429c.025.18.05.372.076.572.06.483.117 1.006.117 1.438 0 1.245-.222 2.253-.92 2.942-.684.674-1.668.879-2.743.955zM7 5.082c1.059-.064 2.079-.355 3.118-.651.188-.054.377-.108.568-.16 1.406-.392 3.006-.771 5.142-.771 2.277 0 3.004.274 3.39.781.216.283.388.718.54 1.448.136.65.242 1.45.379 2.477l.05.385c.32 2.398.253 3.794-.102 4.574-.16.352-.375.569-.66.711-.305.153-.74.245-1.365.245h-2.37c-.681 0-1.293.57-1.211 1.328.026.244.065.537.105.834l.07.527c.06.482.105.922.105 1.25 0 1.125-.213 1.617-.473 1.873-.275.27-.774.456-1.795.528-.351.024-.698-.274-.698-.71v-1.053c0-3.55-2.488-5.063-3.68-5.577A3.485 3.485 0 007 12.861V5.08zM3.75 3.5a.25.25 0 00-.25.25v10.5c0 .138.112.25.25.25h1.5a.25.25 0 00.25-.25V3.75a.25.25 0 00-.25-.25h-1.5z"/></svg>
